symbols/web/lunch_dining/materialsymbolsrounded/lunch_dining_wght500fill1_20px.svg

<svg xmlns="http://www.w3.org/2000/svg" height="20" width="20"><path d="M2.542 8.375q-.396 0-.698-.292-.302-.291-.302-.708 0-2.292 2.416-3.656Q6.375 2.354 10 2.354t6.042 1.365q2.416 1.364 2.416 3.656 0 .417-.302.708-.302.292-.698.292Zm-1 2.646q0-.271.208-.521t.562-.438q.376-.166.803-.395.427-.229 1.26-.229 1.187 0 1.615.406.427.406 1.177.406.729 0 1.187-.406.458-.406 1.646-.406 1.167 0 1.635.406.469.406 1.198.406T14 9.844q.438-.406 1.604-.406.813 0 1.271.218.458.219.833.386.354.187.552.437.198.25.198.542 0 .5-.333.781t-.729.156q-.5-.187-.834-.427-.333-.239-.854-.239-.729 0-1.218.406-.49.406-1.657.406-1.187 0-1.645-.406-.459-.406-1.188-.406-.75 0-1.208.406-.459.406-1.625.406-1.188 0-1.625-.406-.438-.406-1.167-.406-.521 0-.885.239-.365.24-.886.427-.416.104-.739-.166-.323-.271-.323-.771Zm2 6.729q-.834 0-1.417-.573-.583-.573-.583-1.406v-.813q0-.729.51-1.239.51-.511 1.24-.511h13.416q.73 0 1.24.511.51.51.51 1.239v.813q0 .833-.583 1.406t-1.417.573Z"/></svg>

<svg xmlns="http://www.w3.org/2000/svg" height="20" width="20"><path d="M2.542 8.375Q2.146 8.375 1.844 8.083Q1.542 7.792 1.542 7.375Q1.542 5.083 3.958 3.719Q6.375 2.354 10 2.354Q13.625 2.354 16.042 3.719Q18.458 5.083 18.458 7.375Q18.458 7.792 18.156 8.083Q17.854 8.375 17.458 8.375ZM1.542 11.021Q1.542 10.75 1.75 10.5Q1.958 10.25 2.312 10.062Q2.688 9.896 3.115 9.667Q3.542 9.438 4.375 9.438Q5.562 9.438 5.99 9.844Q6.417 10.25 7.167 10.25Q7.896 10.25 8.354 9.844Q8.812 9.438 10 9.438Q11.167 9.438 11.635 9.844Q12.104 10.25 12.833 10.25Q13.562 10.25 14 9.844Q14.438 9.438 15.604 9.438Q16.417 9.438 16.875 9.656Q17.333 9.875 17.708 10.042Q18.062 10.229 18.26 10.479Q18.458 10.729 18.458 11.021Q18.458 11.521 18.125 11.802Q17.792 12.083 17.396 11.958Q16.896 11.771 16.562 11.531Q16.229 11.292 15.708 11.292Q14.979 11.292 14.49 11.698Q14 12.104 12.833 12.104Q11.646 12.104 11.188 11.698Q10.729 11.292 10 11.292Q9.25 11.292 8.792 11.698Q8.333 12.104 7.167 12.104Q5.979 12.104 5.542 11.698Q5.104 11.292 4.375 11.292Q3.854 11.292 3.49 11.531Q3.125 11.771 2.604 11.958Q2.188 12.062 1.865 11.792Q1.542 11.521 1.542 11.021ZM3.542 17.75Q2.708 17.75 2.125 17.177Q1.542 16.604 1.542 15.771V14.958Q1.542 14.229 2.052 13.719Q2.562 13.208 3.292 13.208H16.708Q17.438 13.208 17.948 13.719Q18.458 14.229 18.458 14.958V15.771Q18.458 16.604 17.875 17.177Q17.292 17.75 16.458 17.75Z"/></svg>
